X:1
T:Title
%%score { ( 1 4 ) | ( 2 3 ) }
L:1/8
M:4/4
K:G
V:1 treble nm="Grand Piano"
V:4 treble 
V:2 bass 
V:3 bass 
V:1
 z4 z2[Q:1/4=112] D2 | B3 A G2 B2 | [Ec]2 c2 B2 d2 | e2 d2 c2 B2 |[M:3/4] [FA]6 |[M:1/4] [Fc]2 | %6
[M:4/4] B2 B2 d2 d2 | G2 G2 .[B,FA]2 [DFA]2 | [DGB]2 [B,G]2 [Fd]2 [^CGA]2 |[M:3/4] [DFA]6 | %10
[M:1/4] d2 |[M:4/4] z4 d4- | d6 z2 | e2 dd c2 B2 |[M:3/4] [FA]6 |[M:1/4] d2 |[M:4/4] z4 d4- | %17
 d6 z2 | z2 .e2 z4 |[M:3/4] [G,B,G]6 |[M:6/8][Q:1/4=84] B,/C<[B,D]D/ D [B,D]2 | %21
 D/D/ E2 E [G,B,D]2 | B,[B,D]>D D [A,C]2 | D[K:bass] B,2- B,3 | B,[B,D]>D[K:treble] D [B,D]2 | %25
 [B,D] [CE]2 [CE] [B,D]2 | GF>F F E2 |[M:5/8] F[B,DG]- [B,DG]3- |[M:1/8] [B,DG] | G | %30
[M:3/4] [CA]>A A G2 A | [DB]2 B G2 G | [CA]>A A G2 A | [DB]4- [DB]B | c>c c G2 A | [DB]2 B G2 G | %36
[M:15/16] [CA]>AAB->BA-A3/2 |[M:5/8] [B,G]-[B,G]- [B,G]3 |[M:1/8] G |[M:3/4] A>A A [B,G]2 [CGA] | %40
 [DGB]4- [DGB]G | A>A A [B,G]2 [CGA] | [DGB]4- [DGB][DB] | [Ec]>[Ec] [Ec] [EG]2 [^DA] | B2 B G2 G | %45
 A>A [CFA] [DGB]2 [CDA] |[M:5/8] [B,DG]-[B,DG]- [B,DG]3 |] %47
V:2
 z4 z2 [G,B,]2 | [G,D]3 [G,CD] [G,B,D]2 [G,D]2 | [C,G,]2 [E,G,E]2[K:treble] [G,D]2 [G,B,G]2 | %3
 [CEc]2 [B,DB]2 [A,CA]2 [G,B,G]2 |[M:3/4][K:bass] [D,D]6 |[M:1/4] [D,D]2 | %6
[M:4/4][K:treble] [G,DG]2 [G,DG]2 [G,B,G]2 [G,B,G]2 | [E,B,]2 [E,B,]2 z C D,2 | G,2 G,2 A,2 A,2 | %9
[M:3/4] D,6 |[M:1/4] z2 |[M:4/4] z4 z2 [D,D]2 | [E,D]2 [F,D]2 [G,D]2 B,2 | %13
 C2 B,B, [A,DF]2 [G,DG]2 |[M:3/4][K:bass] [D,D]6 |[M:1/4] z2 |[M:4/4] z4 z2 [D,D]2 | %17
 [E,D]2 [F,D]2[K:treble] [G,D]2 [G,B,G]2 | [G,B,G]2[K:bass] CA, D,2 D,2 |[M:3/4] G,,6 | %20
[M:6/8] G,<.A, z/ B,/ .B,3 | B,/B,/ C2 .C3 | .G,2 z/ B,/ .B,3 | B, [G,,D,G,]2- [G,,D,G,]3 | %24
 .G,2 z/ B,/ B, [G,,G,]2- | [G,,G,] [C,G,]2- [C,G,] z z | [B,D][CD]>[CD] [CD] C2 | %27
[M:5/8] [CD][G,,D,]- [G,,D,]3- |[M:1/8] [G,,D,] | z |[M:3/4] z z/ C/ C B,2 C | z2 D B,2 B, | %32
 z z/ C/ C B,2 C | z2 z2 z D | E>E E E2 ^D | z2 D B,2 B, |[M:15/16] z3/2 C/CD->DC-C3/2 | %37
[M:5/8] [G,,D,]-[G,,D,]- [G,,D,]3 |[M:1/8] z |[M:3/4] C>C CG,, B,,D, | G,4- G,B, | C>C CG,, B,,D, | %42
 G,4- G,G, | [C,G,]>[C,G,] [C,G,] [C,G,]2 [C,G,] | [G,D]2 [G,D] [G,B,D]2 [G,B,D] | %45
 [D,CD]>[D,CD] D, D,2 D, |[M:5/8] G,,-G,,- G,,3 |] %47
V:3
 x8 | x8 | x4[K:treble] x4 | x8 |[M:3/4][K:bass] x6 |[M:1/4] x2 |[M:4/4][K:treble] x8 | z4 D,2 z2 | %8
 x8 |[M:3/4] x6 |[M:1/4] x2 |[M:4/4] x8 | x8 | x8 |[M:3/4][K:bass] x6 |[M:1/4] x2 |[M:4/4] x8 | %17
 x4[K:treble] x4 | z2[K:bass] C,2 z4 |[M:3/4] x6 |[M:6/8] z [G,,G,]2- [G,,G,] [G,,G,]2- | %21
 [G,,G,] [C,G,]2- [C,G,] G,,2- | G,, D,2- D, D,2- | D,3 z3 | z [G,,G,]2- [G,,G,] z z | %25
 z3 z [G,,G,]2- | [G,,G,] D,2- D, D,2- |[M:5/8] D, z z z2 |[M:1/8] x | x |[M:3/4] [D,,D,]6 | %31
 [G,,D,]6 | [D,,D,]6 | [G,,D,]6 | [C,,E,]6 | [G,,D,]6 | %36
[M:15/16] [D,,D,]3/2-[D,,D,]3/2-[D,,D,]3/2- [D,,D,]3 |[M:5/8] x5 |[M:1/8] x |[M:3/4] x6 | x6 | x6 | %42
 x6 | x6 | x6 | x6 |[M:5/8] x5 |] %47
V:4
 x8 | x8 | x8 | x8 |[M:3/4] x6 |[M:1/4] x2 |[M:4/4] x8 | x8 | x8 |[M:3/4] x6 |[M:1/4] x2 | %11
[M:4/4] d2 d2 z2 F2 | G2 A2 B2 d2 | x8 |[M:3/4] x6 |[M:1/4] x2 |[M:4/4] d2 d2 z2 F2 | G2 A2 B2 d2 | %18
 d2 G-[Gc] [DGB]2 [CFA]2 |[M:3/4] x6 |[M:6/8] x6 | x6 | x6 | x[K:bass] x5 | x3[K:treble] x3 | x6 | %26
 x6 |[M:5/8] x5 |[M:1/8] x | x |[M:3/4] x6 | x6 | x6 | x6 | x6 | x6 |[M:15/16] x15/2 |[M:5/8] x5 | %38
[M:1/8] x |[M:3/4] x6 | x6 | x6 | x6 | x6 | x6 | x6 |[M:5/8] x5 |] %47

